X:1
T:Ayme qui vouldra
T:Ayme qui vouldra
T:Pierre de Manchicourt
C:Pierre de Manchicourt
%%score [ 1 2 [ 3 4 ] ]
L:1/8
Q:1/4=90
M:2/2
K:C
V:1 treble nm="Superius" snm="S"
V:2 treble nm="Altus" snm="A"
V:3 treble-8 nm="Tenor 1" snm="T 1"
V:4 treble-8 nm="Tenor 2" snm="T 2"
V:1
 z4 c4- | c2 c2 c4 | d4 e4 | c3 B A4 | G8 | z2 g2 g2 g2 | e4 c2 e2- | e2 dc B2 e2- | e2 d2 c3 d | %9
w: Ay-|* me qui|voul- *||dra,|a- mour ja|nau- ra des|_ sus _ moy puis-|* san- * *|
 e2 f2 e2 d2- | dc c4 B2 | c8 | z4 z2 c2- | c2 B2 A2 G2 | A4 G4 | z2 G2 GA Bc | d2 BA Bc dc | %17
w: ||ce,|mon|_ cueur en souf-|fran- ce|plus ne _ _ _|_ tien- * * * * *|
 BA/G/ A2 GA BG | A2 G4 F2 | G8 | z2 G2 c2 d2 | e2 dc BG g2- | gf f4 e2- | e2 d2 e4- | e4 z4 | %25
w: ||dra,|mais tant que|vi- * * * * *||* ve- ra,|_|
 z4 c4 |: d2 f4 e2 | d2 c4 B2 | c2 G2 A2 c2 | B2 A2 GA Bc | d2 e2 f4 | e3 d/c/ BA Bc | %32
w: trous-|s'et arc se-|* * ra|mis, trous- e'et arc|se- * ra _ _ _|mis en non-|cha- * * len- * * *|
 d2 e3 d c2- | c2 B2 c4 | z8 |1[M:2/4] c4 :|2[M:2/2] c2 B2 c4- || c8 |] %38
w: |* * ce,||trous-|(len)- * ce.|_|
V:2
 G6 G2 | A6 G2 | A2 B2 G2 C2 | E4 F4 | E2 DC D2 G2 | G2 G2 E4 | C4 z2 G2- | G2 F2 G2 c2- | %8
w: Ay- me|qui voul-|||* * * dra, a-|mour ja nau-|ra des-|* sus moy puis-|
 c2 B2 A2 GF |"^b" G2 A2 G2 B2 | A2 F2 G4 | z2 G4 F2 | E2 D4 C2 | G4 F2 E2- | E2 D2 E4 | %15
w: * * san- * *|ce, sur moy puis-|san- * ce,-|mon cueur|en souf- fran-|* ce plus|_ _ ne|
 D4 G,2 G,A, | B,C D2 B,4- | B,2 C4 B,2 | E2 C2 D4 | z2 G,2 C4 | D2 E3 C G2- | G2 F2 G4 | %22
w: tien- * * *|||* * dra,|mais tant|que vi- * *||
 A3 G AB c2- | c2 B2 c2 G2 | A2 c2 B2 A2 | GA BG A2 G2 |: F2 D2 EF GE | FG A2 G3 F | E4 z4 | %29
w: |* ve- ra, trous-|s'et arc se- ra|mis _ en _ non- cha-|len- * * * * *||ce,|
 z2 D2 E2 G2 | F2 E2 DEFG | A2 G4 FE | D2 C2 E2 F2 | G2 z G A2 c2 | B2 A2 GA BG |1[M:2/4] A2 G2 :|2 %36
w: trous- s'et arc|se- ra mis _ _ _|_ en non- *|* cha- len- *|ce, trous- s'et arc|se- ra mis _ en _|non- cha-|
[M:2/2] G8- || G8 |] %38
w: ce-||
V:3
 e6 e2 | f4 e4 | f4 e4- | e2 dc dc c2- | c2 BA B4- | B4 z2 g2 | g2 g2 e4 | c4 z2 g2 | g2 g2 e4 | %9
w: Ay- me|qui voul-|||* * * dra,|_ a-|mour ja nau-|ra, a-|mour ja nau-|
 c3 d e2 f2 | e2 dc d4 | c3 B A4 | G2 g2 f2 e2- | e2 d2 c2 B2- | B2 A2 B2 c2- | c2 BA B4 | %16
w: ra des- sus moy|puis- * * san-||ce, mon cueur en|_ souf- fran- *||* * * ce|
 z2 G2 GA Bc | de fd e2 d2 | cB AG A4 | G2 d2 e2 c2 | c2 B2 c2 G2 | c4 d4 | e2 f2 d2 e2 | f4 e4 | %24
w: plus ne _ _ _|_ _ _ _ tien- *||dra, mais tant que|vi- ve- ra, mais|tant que|vi- * * *|ve- ra,|
 z2 c2 d2 f2 | e2 d3 c c2- |: c2 B2 c2 c2 | d2 f2 e2 d2 | c2 e4 dc | dc BA B2 z G | A2 c2 B2 A2 | %31
w: trous- s'et arc|se- ra _ _|_ _ mis, trous-|s'et arc se- *||ra _ _ _ mis, trius-|s'et arc se- ra|
 cd ef g2 g2 | f2 e2 c4 | d4 z2 c2 | d2 f2 e2 d2- |1[M:2/4] d2 c2- :|2[M:2/2] d4 c4- || c8 |] %38
w: mis _ _ _ _ en|non- cha- len-|ce, trous-|s'et arc se- *|* ra|(len)- ce.|_|
V:4
 c6 c2 | F3 G AB c2- | c2 B2 c3 B | A4 F4 | G2 G2 G2 G2 | E4 C4 | z2 c2 c2 c2 | A4 G2 C2 | %8
w: Ay- me|qui _ _ _ _|_ voul- * *||dra, a- mour ja|nau- ra|a- mour ja|nau- ra des-|
 G4 A2 c2- |"^b" c2 F2 c2 B2 | c2 A2 G4 | C4 z2 c2- | c2 B2 A4 | G4 A2 E2 | F4 E2 C2 | G4 z2 G2 | %16
w: sus moy puis-|* * san- *||ce, mon|_ cueur en|souf- fran- *||ce plus|
 GA Bc d2 G2- | G2 F2 G4 | C2 E2 D4 | G4 z2 C2 | F2 G2 A2 B2 | c2 A2 G2 G2 | c2 d2 f2 c2 | %23
w: ne- _ _ _ _ _|_ tien- dra,|plus ne tien-|dra, mais|tant que vi- *|* ve- ra, mais|tant que vi- *|
 d4 c3 B | A4 G2 D2 | E2 G2 F2 E2 |: D4 C4 | z4 z2 G2 | A2 c3 B A2 | G2 F2 E4 | D2 C2 D4 | %31
w: |ve- ra,- trous-|s'et arc se- *|ra mis,|trous-|s'et arc se- ra|mis en non-|cha- * len-|
 C3 D EF GA | B2 c2 A4 | G2 B2 A4 | G2 D2 E2 G2 |1[M:2/4] F2 E2 :|2[M:2/2] G4 C4- || C8 |] %38
w: ||ce, trous- s'et|arc se- * *||(len)- ce.|_|

